logos/cyclejs.svg

<svg width="256" height="256" xmlns="http://www.w3.org/2000/svg" preserveAspectRatio="xMidYMid">
	<defs>
		<linearGradient x1="29.184%" y1="99.591%" x2="86.484%" y2=".354%" id="a">
			<stop stop-color="#51D3D9" offset="41.47%"/>
			<stop stop-color="#C8FF8C" offset="100%"/>
		</linearGradient>
		<linearGradient x1="34.118%" y1="106.866%" x2="94.65%" y2="20.552%" id="b">
			<stop stop-color="#51D3D9" offset="41.47%"/>
			<stop stop-color="#5A919B" offset="100%"/>
		</linearGradient>
	</defs>
	<path d="M255.96 198.32c-.12 2.6-.84 5.16-2.16 7.48l-24.24 42a16.33 16.33 0 0 1-14.16 8.2H80.88c-5.84 0-11.24-3.12-14.16-8.16L2.2 136.2C.72 133.64 0 130.84 0 128c0-2.84.56-5.8 2.28-8.68L66.76 8.16C69.68 3.12 75.08 0 80.88 0H215.4c5.84 0 11.24 3.12 14.16 8.16 0 0 23.32 38.2 25 40.92 1.68 2.72 1.4 6.16 1.4 8.96 0 2.4-.68 5.68-1.32 8.28-.64 2.6-20.16 81.72-20.16 81.72l-42.6-90.6h-87.32L63.68 128l40.88 70.56h87.28l64.12-.24Z" fill="url(#a)"/>
	<path d="m224.84 127.96 29.6 62.76a16.31 16.31 0 0 1-.64 15.12l-61.92-7.24 32.96-70.64Z" fill="url(#b)"/>
</svg>

<?xml version="1.0" encoding="UTF-8" standalone="no"?>
<svg width="256px" height="256px" viewBox="0 0 256 256" version="1.1" xmlns="http://www.w3.org/2000/svg" xmlns:xlink="http://www.w3.org/1999/xlink" preserveAspectRatio="xMidYMid">
    <defs>
        <linearGradient x1="29.1842525%" y1="99.591125%" x2="86.4835855%" y2="0.354484375%" id="linearGradient-1">
            <stop stop-color="#51D3D9" offset="41.47%"></stop>
            <stop stop-color="#C8FF8C" offset="100%"></stop>
        </linearGradient>
        <linearGradient x1="34.1175797%" y1="106.866256%" x2="94.6503472%" y2="20.5520801%" id="linearGradient-2">
            <stop stop-color="#51D3D9" offset="41.47%"></stop>
            <stop stop-color="#5A919B" offset="100%"></stop>
        </linearGradient>
    </defs>
	<g>
		<path d="M255.96,198.32 C255.84,200.92 255.12,203.48 253.8,205.8 L229.56,247.8 C226.64,252.88 221.24,256 215.4,256 L80.88,256 C75.04,256 69.64,252.88 66.72,247.84 L2.2,136.2 C0.72,133.64 0,130.84 0,128 C0,125.16 0.56,122.2 2.28,119.32 L66.76,8.16 C69.68,3.12 75.08,0 80.88,0 L215.4,0 C221.24,0 226.64,3.12 229.56,8.16 C229.56,8.16 252.88,46.36 254.56,49.08 C256.24,51.8 255.96,55.24 255.96,58.04 C255.96,60.44 255.28,63.72 254.64,66.32 C254,68.92 234.48,148.04 234.48,148.04 L191.88,57.44 L104.56,57.44 L63.68,128 L104.56,198.56 L191.84,198.56 L255.96,198.32 L255.96,198.32 Z" fill="url(#linearGradient-1)"></path>
		<path d="M224.84,127.96 L254.44,190.72 C256.72,195.56 256.48,201.2 253.8,205.84 L191.88,198.6 L224.84,127.96 L224.84,127.96 Z" fill="url(#linearGradient-2)"></path>
	</g>
</svg>
